_uploads/ornament-g-solid.svg

<svg width="40" height="40" fill="none" xmlns="http://www.w3.org/2000/svg"><path d="M20 40c11.046 0 20-8.954 20-20S31.046 0 20 0 0 8.954 0 20s8.954 20 20 20z" fill="#000"/><path d="M20.67 10c5.53 0 8.3 3.53 8.57 6.44v.41H26.9c-.19-2.07-1.8-4.85-6.2-4.85s-7.25 3.07-7.25 8 2.89 8 7.25 8c4.2 0 6-2.81 6.06-5.77H20.1v-1.84h8.92v9.35H27.3l-.54-2.51h-.27c-.64.89-2.18 2.8-6.06 2.8-5.33 0-9.43-3.69-9.43-10C11 13.72 15.01 10 20.67 10z" fill="#fff"/></svg>

<svg width="40" height="40" viewBox="0 0 40 40" fill="none" xmlns="http://www.w3.org/2000/svg">
<path d="M20 40C31.0457 40 40 31.0457 40 20C40 8.9543 31.0457 0 20 0C8.9543 0 0 8.9543 0 20C0 31.0457 8.9543 40 20 40Z" fill="black"/>
<path d="M20.67 10C26.2 10 28.97 13.53 29.24 16.44V16.85H26.9C26.71 14.78 25.1 12 20.7 12C16.3 12 13.45 15.07 13.45 20C13.45 24.93 16.34 28 20.7 28C24.9 28 26.7 25.19 26.76 22.23H20.1V20.39H29.02V29.74H27.3L26.76 27.23H26.49C25.85 28.12 24.31 30.03 20.43 30.03C15.1 30.03 11 26.34 11 20.03C11 13.72 15.01 10 20.67 10Z" fill="white"/>
</svg>
